assets/Woman singer/Medium-Dark/Flat/woman_singer_flat_medium-dark.svg

<svg width="32" height="32" viewBox="0 0 32 32" fill="none" xmlns="http://www.w3.org/2000/svg">
<path d="M22.178 13.4242C22.3864 12.9886 22.5 12.5057 22.5 11.9943C22.5 11.322 22.3011 10.697 21.9508 10.1761C21.6004 9.6553 21.4205 9.03977 21.4205 8.4053V8.39583C21.4205 6.57765 19.9432 5.10038 18.125 5.10038C17.9451 5.10038 17.7746 5.01515 17.6705 4.87311C17.0833 4.03977 16.108 3.5 15 3.5C13.9015 3.5 12.9261 4.03977 12.3295 4.87311C12.2254 5.02462 12.0549 5.10985 11.875 5.10985C10.0568 5.10985 8.57955 6.58712 8.57955 8.4053V8.41477C8.57955 9.04924 8.39962 9.6553 8.04924 10.1856C7.70833 10.697 7.5 11.322 7.5 11.9943C7.5 12.5057 7.61364 12.9886 7.82197 13.4242C7.88826 13.5663 7.88826 13.7367 7.82197 13.8788C7.61364 14.3049 7.5 14.7784 7.5 15.2898C7.5 17.0606 8.93939 18.5 10.7102 18.5H19.2803C21.0511 18.5 22.4905 17.0606 22.4905 15.2898C22.4905 14.7879 22.3769 14.3049 22.1686 13.8788C22.1117 13.7367 22.1117 13.5663 22.178 13.4242Z" fill="#2D242D"/>
<path d="M7.13679 20.9517C4.85271 22.943 3.31411 25.7876 3 29H11V24.0553L7.13679 20.9517Z" fill="#433B6B"/>
<path d="M19 29H27C26.685 25.7933 25.1445 22.9493 22.8607 20.9568L19 24.0553V29Z" fill="#433B6B"/>
<path d="M14.5268 17C12.9732 17 11.4464 17.225 10 17.6485L11.4732 25.4176C12.4375 25.7882 13.4821 26 14.5804 26C15.6116 26 16.6027 25.8147 17.5134 25.4971L19 17.6618C17.5937 17.225 16.0804 17 14.5268 17Z" fill="#8B5C56"/>
<path d="M12.5 24L13.4867 29H16.5244L17.5 24.0527C16.7461 24.3165 15.9257 24.4536 15.0721 24.4536C14.1741 24.4641 13.2982 24.2954 12.5 24Z" fill="#E6E6E6"/>
<path d="M5.1719 16.8582L11 29H14L11.5 16.5H5.39728C5.21319 16.5 5.09224 16.6922 5.1719 16.8582Z" fill="#8B62BF"/>
<path d="M24.828 16.8582L19 29H16L18.5 16.5H24.6027C24.7868 16.5 24.9077 16.6922 24.828 16.8582Z" fill="#8B62BF"/>
<path d="M18.911 8.85994H15.7386C14.4791 8.85994 13.3049 8.23494 12.5947 7.20274C12.4716 7.03229 12.2159 7.0607 12.1401 7.25956L12.0644 7.44896C11.8276 7.9982 11.4015 8.42433 10.8712 8.66108C10.8428 8.67055 10.8049 8.68949 10.767 8.69896C10.5397 8.82206 9.9905 9.18191 9.97156 10.1289L10.1041 13.2918C10.2178 16.0948 12.3769 17.9698 15 17.9698C17.6231 17.9698 19.7822 16.0948 19.8958 13.2918L20.0189 10.2804C20.0189 8.95464 19.0909 8.85994 18.911 8.85994Z" fill="#966661"/>
<path d="M14.1278 8.50166C13.5181 8.2166 12.986 7.77152 12.5947 7.20283C12.5507 7.1419 12.4897 7.10638 12.4261 7.09497L10.4795 12.7818H12.297L11.8022 15.5001L15.4282 10.3308H13.5387L14.1278 8.50166Z" fill="#F92F60"/>
<path d="M12.3959 10.6968C12.9546 10.6968 13.4092 11.085 13.7027 11.5206C13.4724 11.5901 13.2484 11.6542 13.0268 11.7177C12.5834 11.8447 12.1498 11.9688 11.6952 12.1267L11.2217 11.7006C11.0323 11.5206 11.0418 11.1987 11.2596 11.0472C11.5721 10.8199 11.9982 10.6968 12.3959 10.6968Z" fill="black"/>
<path d="M17.6136 10.6968C17.0549 10.6968 16.5909 11.085 16.3068 11.5206C16.5537 11.5961 16.7944 11.6653 17.0338 11.7342C17.4555 11.8555 17.8734 11.9757 18.3143 12.1267L18.7878 11.7006C18.9772 11.5206 18.9677 11.1987 18.7499 11.0472C18.4374 10.8199 18.0113 10.6968 17.6136 10.6968Z" fill="black"/>
<path d="M12.5662 10.8011C11.9128 10.8011 11.3636 11.2462 11.2121 11.8522C11.1742 12.0227 11.3068 12.1931 11.4867 12.1931H13.7121C13.8541 12.1931 13.9677 12.0606 13.9393 11.928C13.8068 11.2841 13.248 10.8011 12.5662 10.8011Z" fill="white"/>
<path d="M17.4338 10.801C18.0872 10.801 18.6364 11.2461 18.788 11.8522C18.8258 12.0226 18.6933 12.1931 18.5228 12.1931H16.2974C16.1554 12.1931 16.0417 12.0605 16.0701 11.9279C16.1933 11.284 16.7614 10.801 17.4338 10.801Z" fill="white"/>
<path d="M11.8845 11.9566C11.8845 11.4641 12.2822 11.0664 12.7747 11.0664C13.2671 11.0664 13.6648 11.4641 13.6648 11.9566C13.6648 12.0323 13.6554 12.1175 13.6269 12.1933H11.9129C11.894 12.1175 11.8845 12.0418 11.8845 11.9566Z" fill="#7D4533"/>
<path d="M18.1156 11.9566C18.1156 11.4641 17.7179 11.0664 17.2255 11.0664C16.733 11.0664 16.3353 11.4641 16.3448 11.9566C16.3448 12.0418 16.3542 12.1175 16.3732 12.1933H18.0872C18.1061 12.1175 18.1156 12.0418 18.1156 11.9566Z" fill="#7D4533"/>
<path d="M12.7651 11.4448C13.0492 11.4448 13.2765 11.6721 13.2765 11.9562C13.2765 12.0414 13.2576 12.1172 13.2102 12.1929H12.3106C12.2727 12.1172 12.2538 12.0414 12.2538 11.9562C12.2538 11.6721 12.4811 11.4448 12.7651 11.4448Z" fill="black"/>
<path d="M17.2349 11.4448C16.9508 11.4448 16.7235 11.6721 16.7235 11.9562C16.7235 12.0414 16.7425 12.1172 16.7898 12.1929H17.6894C17.7273 12.1172 17.7462 12.0414 17.7462 11.9562C17.7462 11.6721 17.519 11.4448 17.2349 11.4448Z" fill="black"/>
<path d="M12.6326 11.6058C12.6326 11.6947 12.5606 11.7668 12.4717 11.7668C12.3827 11.7668 12.3107 11.6947 12.3107 11.6058C12.3107 11.5169 12.3827 11.4448 12.4717 11.4448C12.5606 11.4448 12.6326 11.5169 12.6326 11.6058Z" fill="#75443E"/>
<path d="M17.0928 11.6058C17.0928 11.6947 17.0208 11.7668 16.9319 11.7668C16.8429 11.7668 16.7709 11.6947 16.7709 11.6058C16.7709 11.5169 16.8429 11.4448 16.9319 11.4448C17.0208 11.4448 17.0928 11.5169 17.0928 11.6058Z" fill="#75443E"/>
<path d="M14.6541 11.7897L14.1583 13.5282C14.0554 13.884 14.2986 14.25 14.6447 14.25H15.3743C15.7204 14.25 15.9636 13.884 15.8607 13.5282L15.365 11.7897C15.2621 11.4034 14.7663 11.4034 14.6541 11.7897Z" fill="#75443E"/>
<path d="M15.0005 15.2057C14.45 15.2057 13.9301 15.0669 13.4918 14.8212C13.3389 14.7358 13.186 14.9174 13.2777 15.0669C13.6447 15.6542 14.2767 16.0493 15.0005 16.0493C15.7243 16.0493 16.3563 15.6542 16.7233 15.0669C16.8151 14.9174 16.652 14.7465 16.5093 14.8212C16.0607 15.0669 15.551 15.2057 15.0005 15.2057Z" fill="#990838"/>
<path d="M18.3996 10.1478C18.4375 10.1762 18.4848 10.1857 18.5322 10.1857C18.6269 10.1857 18.7121 10.1383 18.7594 10.0436C18.8352 9.91106 18.7973 9.75007 18.6647 9.67431C18.6363 9.65537 17.7651 9.17242 16.7708 9.35234C16.6193 9.38075 16.5246 9.5228 16.553 9.66484C16.5814 9.81636 16.7235 9.91106 16.8655 9.88265C17.6018 9.7527 18.2668 10.0824 18.3821 10.1395C18.3928 10.1448 18.3996 10.1478 18.3996 10.1478Z" fill="#372128"/>
<path d="M11.2309 10.0529C11.2878 10.1382 11.373 10.1855 11.4677 10.1855C11.515 10.1855 11.5624 10.176 11.6003 10.1571C11.6097 10.1476 12.3294 9.7499 13.1344 9.89194C13.2859 9.92035 13.4184 9.81618 13.4374 9.67414C13.4658 9.53209 13.3616 9.39005 13.2196 9.36164C12.2663 9.18007 11.4349 9.62516 11.3345 9.67892C11.3302 9.68124 11.3256 9.68361 11.3256 9.68361C11.2025 9.75937 11.1552 9.92035 11.2309 10.0529Z" fill="#372128"/>
<path d="M27 21C27.5514 21 28 21.4091 28 21.9119V24H26V21.9119C26 21.4091 26.4486 21 27 21Z" fill="#8B5C56"/>
<path d="M25.68 19.67C27.0386 19.67 28.14 18.5686 28.14 17.21C28.14 15.8514 27.0386 14.75 25.68 14.75C24.3213 14.75 23.22 15.8514 23.22 17.21C23.22 18.5686 24.3213 19.67 25.68 19.67Z" fill="#321B41"/>
<path d="M23.32 16.54L28.09 16.56C28.4 16.56 28.66 16.82 28.66 17.13C28.66 17.45 28.41 17.7 28.09 17.7L23.32 17.68C23 17.68 22.75 17.43 22.75 17.11C22.75 16.79 23 16.54 23.32 16.54Z" fill="#D3D3D3"/>
<path d="M24.87 25.5099C24.91 25.9099 25.24 26.2099 25.64 26.2099C26.03 26.2099 26.37 25.9199 26.42 25.5199L27.14 19.1899L24.21 19.1799L24.87 25.5099Z" fill="#D3D3D3"/>
<path d="M25.65 21.5701C25.9151 21.5701 26.13 21.3552 26.13 21.0901C26.13 20.825 25.9151 20.6101 25.65 20.6101C25.3849 20.6101 25.17 20.825 25.17 21.0901C25.17 21.3552 25.3849 21.5701 25.65 21.5701Z" fill="#F4F4F4"/>
<path d="M23.7849 23.0214C23.369 23.0214 23.0193 23.3843 23.0004 23.8434C22.991 24.153 23.1328 24.4306 23.3407 24.5801C23.1328 24.7295 23.0004 24.9964 23.0004 25.2954C23.0004 25.5943 23.1328 25.8505 23.3407 26.0107C23.1328 26.1601 23.0004 26.427 23.0004 26.726C23.0004 27.0249 23.1328 27.2811 23.3407 27.4413C23.1328 27.6014 22.991 27.8683 23.0004 28.1779C23.0099 28.6477 23.369 29 23.7849 29H27.1211C27.6031 29 28 28.5623 28 28.0071V23.9929C28 23.4484 27.6125 23 27.1211 23H23.7849V23.0214Z" fill="#966661"/>
</svg>

<svg xmlns="http://www.w3.org/2000/svg" width="32" height="32" fill="none"><path fill="#2D242D" d="M22.178 13.424c.208-.435.322-.918.322-1.43 0-.672-.199-1.297-.55-1.818a3.162 3.162 0 0 1-.53-1.77v-.01A3.298 3.298 0 0 0 18.126 5.1a.565.565 0 0 1-.454-.227A3.252 3.252 0 0 0 15 3.5c-1.098 0-2.074.54-2.67 1.373a.549.549 0 0 1-.455.237A3.298 3.298 0 0 0 8.58 8.405v.01c0 .634-.18 1.24-.53 1.77a3.262 3.262 0 0 0-.55 1.81c0 .51.114.994.322 1.43a.544.544 0 0 1 0 .454A3.213 3.213 0 0 0 10.71 18.5h8.57c1.771 0 3.21-1.44 3.21-3.21 0-.502-.113-.985-.321-1.411a.583.583 0 0 1 .009-.455Z"/><path fill="#433B6B" d="M7.137 20.952A12.246 12.246 0 0 0 3 29h8v-4.945l-3.863-3.103ZM19 29h8a12.257 12.257 0 0 0-4.14-8.043L19 24.055V29Z"/><path fill="#8B5C56" d="M14.527 17c-1.554 0-3.08.225-4.527.648l1.473 7.77c.964.37 2.01.582 3.107.582a8.914 8.914 0 0 0 2.933-.503L19 17.662A15.107 15.107 0 0 0 14.527 17Z"/><path fill="#E6E6E6" d="m12.5 24 .987 5h3.037l.976-4.947a7.35 7.35 0 0 1-2.428.4A7.196 7.196 0 0 1 12.5 24Z"/><path fill="#8B62BF" d="M5.172 16.858 11 29h3l-2.5-12.5H5.397a.25.25 0 0 0-.225.358ZM24.828 16.858 19 29h-3l2.5-12.5h6.103a.25.25 0 0 1 .225.358Z"/><path fill="#966661" d="M18.911 8.86h-3.172a3.82 3.82 0 0 1-3.144-1.657.258.258 0 0 0-.455.057l-.076.189c-.236.55-.662.975-1.193 1.212-.028.01-.066.028-.104.038-.227.123-.776.483-.795 1.43l.132 3.163c.114 2.803 2.273 4.678 4.896 4.678 2.623 0 4.782-1.875 4.896-4.678l.123-3.012c0-1.325-.928-1.42-1.108-1.42Z"/><path fill="#F92F60" d="M14.128 8.502a3.83 3.83 0 0 1-1.533-1.3.265.265 0 0 0-.169-.107l-1.947 5.687h1.818l-.495 2.718 3.626-5.17h-1.89l.59-1.828Z"/><path fill="#000" d="M12.396 10.697c.559 0 1.013.388 1.307.824-.23.07-.455.133-.676.197-.444.127-.877.25-1.332.409l-.473-.426c-.19-.18-.18-.502.038-.654a1.99 1.99 0 0 1 1.136-.35ZM17.614 10.697c-.56 0-1.023.388-1.307.824.247.075.487.144.727.213.422.121.84.242 1.28.393l.474-.426c.19-.18.18-.502-.038-.654a1.99 1.99 0 0 0-1.136-.35Z"/><path fill="#fff" d="M12.566 10.801c-.653 0-1.202.445-1.354 1.051-.038.17.095.341.275.341h2.225c.142 0 .256-.132.227-.265a1.402 1.402 0 0 0-1.373-1.127ZM17.434 10.801c.653 0 1.202.445 1.354 1.051.038.17-.095.341-.265.341h-2.226c-.142 0-.255-.133-.227-.265a1.391 1.391 0 0 1 1.364-1.127Z"/><path fill="#7D4533" d="M11.884 11.957a.89.89 0 1 1 1.78 0c0 .075-.009.16-.037.236h-1.714a.956.956 0 0 1-.029-.236ZM18.116 11.957a.89.89 0 0 0-.89-.89.875.875 0 0 0-.881.89c0 .085.01.16.028.236h1.714a.956.956 0 0 0 .029-.236Z"/><path fill="#000" d="M12.765 11.445a.51.51 0 0 1 .511.511.427.427 0 0 1-.066.237h-.9a.513.513 0 0 1 .455-.748ZM17.235 11.445a.51.51 0 0 0-.511.511c0 .085.018.161.066.237h.9a.513.513 0 0 0-.455-.748Z"/><path fill="#75443E" d="M12.633 11.606a.16.16 0 1 1-.322 0 .16.16 0 0 1 .322 0ZM17.093 11.606a.16.16 0 1 1-.322 0 .16.16 0 0 1 .322 0ZM14.654 11.79l-.496 1.738c-.103.356.14.722.487.722h.73c.345 0 .589-.366.486-.722l-.496-1.738c-.103-.387-.599-.387-.71 0Z"/><path fill="#990838" d="M15 15.206c-.55 0-1.07-.14-1.508-.385-.153-.085-.306.096-.214.246.367.587.999.982 1.723.982.723 0 1.355-.395 1.722-.982.092-.15-.071-.32-.214-.246a3.118 3.118 0 0 1-1.508.385Z"/><path fill="#372128" d="M18.4 10.148a.218.218 0 0 0 .132.038c.095 0 .18-.048.227-.142a.265.265 0 0 0-.094-.37c-.029-.019-.9-.502-1.894-.322a.267.267 0 0 0-.218.313c.028.151.17.246.313.218.736-.13 1.4.2 1.516.257l.018.008ZM11.23 10.053a.282.282 0 0 0 .238.132c.047 0 .094-.009.132-.028.01-.01.73-.407 1.534-.265a.256.256 0 0 0 .303-.218c.029-.142-.075-.284-.217-.312-.954-.182-1.785.263-1.886.317l-.008.005a.273.273 0 0 0-.095.369Z"/><path fill="#8B5C56" d="M27 21c.551 0 1 .41 1 .912V24h-2v-2.088c0-.503.449-.912 1-.912Z"/><path fill="#321B41" d="M25.68 19.67a2.46 2.46 0 1 0 0-4.92 2.46 2.46 0 0 0 0 4.92Z"/><path fill="#D3D3D3" d="m23.32 16.54 4.77.02c.31 0 .57.26.57.57 0 .32-.25.57-.57.57l-4.77-.02c-.32 0-.57-.25-.57-.57 0-.32.25-.57.57-.57ZM24.87 25.51c.04.4.37.7.77.7.39 0 .73-.29.78-.69l.72-6.33-2.93-.01.66 6.33Z"/><path fill="#F4F4F4" d="M25.65 21.57a.48.48 0 1 0 0-.96.48.48 0 0 0 0 .96Z"/><path fill="#966661" d="M23.785 23.021c-.416 0-.766.363-.785.822-.009.31.133.588.34.737a.876.876 0 0 0-.34.715c0 .3.133.555.34.716a.876.876 0 0 0-.34.715c0 .299.133.555.34.715a.892.892 0 0 0-.34.737c.01.47.369.822.785.822h3.336c.482 0 .879-.438.879-.993v-4.014c0-.545-.387-.993-.879-.993h-3.336v.021Z"/></svg>
